X: 162
T:Tailor's Thimble, The
M:C|
R:reel
H:Also in Ador, #585.
Z:Michael Hogan, 16/12/1998
K:Edor
GE~E2 E2AF|GE~E2 AFDF|GE~E2 EFGA|1 BcdB AFDF:|2 BcdB ABde||
|:f2df efde|fedB ABde|f2df efdA|1 BcdB ABde:|2 BcdB AFDF||
"variations"
|:GEED E2AF|GE~E2 AFDF|GEED EFGA|1 B2dB AFDF:|2 BcdB ABde||
|:fddf e2de|fddB ABde|fddf edcA|1 BcdB ABde:|2 B2dB AFDF||
<end>
<start>
